rospo-icon-theme-classic-common/64x64/apps/cin.svg

<svg height="64" width="64" xmlns="http://www.w3.org/2000/svg"><rect height="57" opacity=".2" rx="2.85" transform="scale(1 -1)" width="57" x="4" y="-61"/><rect fill="#fecd38" height="57" rx="2.85" transform="scale(1 -1)" width="57" x="4" y="-60"/><path d="m8 8v5h5v-5zm11 0v5h5v-5zm11 0v5h5v-5zm11 0v5h5v-5zm11 0v5h5v-5zm-42 11v28h19v-28zm26 0v28h19v-28zm-28 33v5h5v-5zm11 0v5h5v-5zm11 0v5h5v-5zm11 0v5h5v-5zm11 0v5h5v-5z" opacity=".2"/><path d="m8 7v5h5v-5zm11 0v5h5v-5zm11 0v5h5v-5zm11 0v5h5v-5zm11 0v5h5v-5zm-42 11v28h19v-28zm26 0v28h19v-28zm-28 33v5h5v-5zm11 0v5h5v-5zm11 0v5h5v-5zm11 0v5h5v-5zm11 0v5h5v-5z" fill="#336894"/><path d="m6.8496094 3c-1.5789 0-2.8496094 1.2707094-2.8496094 2.8496094v1c0-1.5789 1.2707094-2.8496094 2.8496094-2.8496094h51.3007816c1.5789 0 2.849609 1.2707094 2.849609 2.8496094v-1c0-1.5789-1.270709-2.8496094-2.849609-2.8496094z" fill="#fff" opacity=".2"/></svg>

<svg xmlns="http://www.w3.org/2000/svg" width="64" height="64" version="1">
 <rect width="57" height="57" x="4" y="-61" rx="2.85" ry="2.85" transform="scale(1,-1)" style="opacity:0.2"/>
 <rect style="fill:#fecd38" width="57" height="57" x="4" y="-60" rx="2.85" ry="2.85" transform="scale(1,-1)"/>
 <path d="m 8,8 0,5 5,0 0,-5 -5,0 z m 11,0 0,5 5,0 0,-5 -5,0 z m 11,0 0,5 5,0 0,-5 -5,0 z m 11,0 0,5 5,0 0,-5 -5,0 z m 11,0 0,5 5,0 0,-5 -5,0 z m -42,11 0,28 19,0 0,-28 -19,0 z m 26,0 0,28 19,0 0,-28 -19,0 z m -28,33 0,5 5,0 0,-5 -5,0 z m 11,0 0,5 5,0 0,-5 -5,0 z m 11,0 0,5 5,0 0,-5 -5,0 z m 11,0 0,5 5,0 0,-5 -5,0 z m 11,0 0,5 5,0 0,-5 -5,0 z" style="opacity:0.2"/>
 <path style="fill:#336894" d="M 8 7 L 8 12 L 13 12 L 13 7 L 8 7 z M 19 7 L 19 12 L 24 12 L 24 7 L 19 7 z M 30 7 L 30 12 L 35 12 L 35 7 L 30 7 z M 41 7 L 41 12 L 46 12 L 46 7 L 41 7 z M 52 7 L 52 12 L 57 12 L 57 7 L 52 7 z M 10 18 L 10 46 L 29 46 L 29 18 L 10 18 z M 36 18 L 36 46 L 55 46 L 55 18 L 36 18 z M 8 51 L 8 56 L 13 56 L 13 51 L 8 51 z M 19 51 L 19 56 L 24 56 L 24 51 L 19 51 z M 30 51 L 30 56 L 35 56 L 35 51 L 30 51 z M 41 51 L 41 56 L 46 56 L 46 51 L 41 51 z M 52 51 L 52 56 L 57 56 L 57 51 L 52 51 z"/>
 <path style="fill:#ffffff;opacity:0.2" d="M 6.8496094 3 C 5.2707094 3 4 4.2707094 4 5.8496094 L 4 6.8496094 C 4 5.2707094 5.2707094 4 6.8496094 4 L 58.150391 4 C 59.729291 4 61 5.2707094 61 6.8496094 L 61 5.8496094 C 61 4.2707094 59.729291 3 58.150391 3 L 6.8496094 3 z"/>
</svg>
